!!!OTL: Das erlauchte Taenzchen.
!!!OTL-incipit: ZWEI SCHWESTERN STARBEN AN EINEM TAG
!!!ARE: Europa, Mitteleuropa, Deutschland, Niederrhein
!!!SCT: Z1109
!!!TXL: @@DE
!!!YEM: Copyright 1995, estate of Helmut Schaffrath.
**kern	**text
*ICvox	*
*M3/4	*
*k[]	*
*a:	*
!LO:TX:a:t=Vom Niederrhein.	!
{8e	Ʒwei
8e	Schwe-
16f#L	-ſtern
16g#J	.
=1	=1
4a	ſtar-
8a	-ben
8cc	an
16bL	ei-
16aJ	.
8g#	-nem
=2	=2
4.a}	Tag,
{8b	man
8cc	leg-
8dd	-te
=3	=3
4.ee	ſie
8cc	mit-
16eeL	-ſamm
16ddJ	.
8cc	in's
=4	=4
4b;	Grab,
8r}	.
{8a	und
8a	als
8ee	ſie
=5	=5
4ee	ſtan-
8ee	-den
8ff	vor
16eeL	Him-
16ddJ	.
8cc	-mels-
=6	=6
4.dd}	-thür,
{8ee	Sanct
16ddL	Pe-
16ccJ	.
8b	-trus
=7	=7
4.a	ſprach
8cc	wer
16bL	iſt
16aJ	.
8g#	da-
=8	=8
4a;	-für?
8r}	.
==	==
!!!AGN: Romanze, Ballade, Maria
!!!ONB: ESAC (Essen Associative Code) Database: ZUCCAL
!!!AMT: simple triple
!!!AIN: vox
!!!EED: Helmut Schaffrath
!!!EEV: 1.0
!!!GTL: II. Gau- Leuschen.
!!!URL-scan: https://www.digitale-sammlungen.de/de/view/bsb11160573?page=232
!!!ENC: Anna Maria Matuszewska
!!!EEV: 2025/02/04
*-	*-
